temp/img/header/logo.svg

<svg width="127" height="69" viewBox="0 0 127 69" fill="none" xmlns="http://www.w3.org/2000/svg">
<path d="M18.2197 28.8301C18.2197 30.7637 17.3979 32.3369 15.7544 33.5498C14.1196 34.7539 11.896 35.356 9.0835 35.356C7.45752 35.356 6.03809 35.2153 4.8252 34.9341C3.62109 34.644 2.4917 34.2793 1.43701 33.8398V29.1333H1.99072C3.03662 29.9683 4.20557 30.6099 5.49756 31.0581C6.79834 31.5063 8.04639 31.7305 9.2417 31.7305C9.54932 31.7305 9.95361 31.7041 10.4546 31.6514C10.9556 31.5986 11.3643 31.5107 11.6807 31.3877C12.0674 31.2295 12.3838 31.0317 12.6299 30.7944C12.8848 30.5571 13.0122 30.2056 13.0122 29.7397C13.0122 29.3091 12.8276 28.9399 12.4585 28.6323C12.0981 28.3159 11.5664 28.0742 10.8633 27.9072C10.125 27.7314 9.34277 27.5688 8.5166 27.4194C7.69922 27.2612 6.93018 27.0635 6.20947 26.8262C4.55713 26.29 3.36621 25.5649 2.63672 24.6509C1.91602 23.728 1.55566 22.5854 1.55566 21.2231C1.55566 19.395 2.37305 17.9053 4.00781 16.7539C5.65137 15.5938 7.76074 15.0137 10.3359 15.0137C11.6279 15.0137 12.9023 15.1411 14.1592 15.396C15.4248 15.6421 16.519 15.9541 17.4419 16.332V20.854H16.9014C16.1104 20.2212 15.1392 19.6938 13.9878 19.272C12.8452 18.8413 11.6763 18.626 10.481 18.626C10.0591 18.626 9.63721 18.6567 9.21533 18.7183C8.80225 18.771 8.40234 18.8765 8.01562 19.0347C7.67285 19.1665 7.37842 19.3687 7.13232 19.6411C6.88623 19.9048 6.76318 20.208 6.76318 20.5508C6.76318 21.0693 6.96094 21.4692 7.35645 21.7505C7.75195 22.0229 8.49902 22.2734 9.59766 22.502C10.3184 22.6514 11.0083 22.7964 11.6675 22.937C12.3354 23.0776 13.0518 23.271 13.8164 23.5171C15.3193 24.0093 16.4268 24.6816 17.1387 25.5342C17.8594 26.3779 18.2197 27.4766 18.2197 28.8301Z" fill="white"/>
<path d="M36.0176 28.4741H25.1543C25.2246 29.6343 25.6641 30.522 26.4727 31.1372C27.29 31.7524 28.4897 32.0601 30.0718 32.0601C31.0737 32.0601 32.0449 31.8799 32.9854 31.5195C33.9258 31.1592 34.6685 30.7725 35.2134 30.3594H35.7407V34.1694C34.6685 34.6001 33.6577 34.9121 32.7085 35.1055C31.7593 35.2988 30.709 35.3955 29.5576 35.3955C26.5869 35.3955 24.3105 34.7275 22.7285 33.3916C21.1465 32.0557 20.3555 30.1528 20.3555 27.6831C20.3555 25.2397 21.1025 23.3062 22.5967 21.8823C24.0996 20.4497 26.1562 19.7334 28.7666 19.7334C31.1748 19.7334 32.9854 20.3442 34.1982 21.5659C35.4111 22.7788 36.0176 24.5278 36.0176 26.813V28.4741ZM31.2979 25.6924C31.2715 24.6992 31.0254 23.9521 30.5596 23.4512C30.0938 22.9502 29.3687 22.6997 28.3843 22.6997C27.4702 22.6997 26.7188 22.937 26.1299 23.4116C25.541 23.8862 25.2114 24.6465 25.1411 25.6924H31.2979Z" fill="white"/>
<path d="M48.3311 31.1372V28.0522C47.6895 28.105 46.9951 28.1797 46.248 28.2764C45.501 28.3643 44.9341 28.4697 44.5474 28.5928C44.0728 28.7422 43.708 28.9619 43.4531 29.252C43.207 29.5332 43.084 29.9067 43.084 30.3726C43.084 30.6802 43.1104 30.9307 43.1631 31.124C43.2158 31.3174 43.3477 31.502 43.5586 31.6777C43.7607 31.8535 44.0024 31.9854 44.2837 32.0732C44.5649 32.1523 45.0044 32.1919 45.6021 32.1919C46.0767 32.1919 46.5557 32.0952 47.0391 31.9019C47.5312 31.7085 47.9619 31.4536 48.3311 31.1372ZM48.3311 33.4312C48.0762 33.6245 47.7598 33.8574 47.3818 34.1299C47.0039 34.4023 46.6479 34.6177 46.314 34.7759C45.8481 34.9868 45.3647 35.1406 44.8638 35.2373C44.3628 35.3428 43.8135 35.3955 43.2158 35.3955C41.8096 35.3955 40.6318 34.9604 39.6826 34.0903C38.7334 33.2202 38.2588 32.1084 38.2588 30.7549C38.2588 29.6738 38.5005 28.7905 38.9839 28.105C39.4673 27.4194 40.1528 26.8789 41.0405 26.4834C41.9194 26.0879 43.0093 25.8066 44.3101 25.6396C45.6108 25.4727 46.96 25.3496 48.3574 25.2705V25.1914C48.3574 24.374 48.0234 23.8115 47.3555 23.5039C46.6875 23.1875 45.7031 23.0293 44.4023 23.0293C43.6201 23.0293 42.7852 23.1699 41.8975 23.4512C41.0098 23.7236 40.3726 23.9346 39.9858 24.084H39.5508V20.5112C40.0518 20.3794 40.8647 20.2256 41.9897 20.0498C43.1235 19.8652 44.2573 19.7729 45.3911 19.7729C48.0894 19.7729 50.0361 20.1904 51.2314 21.0254C52.4355 21.8516 53.0376 23.1523 53.0376 24.9277V35H48.3311V33.4312Z" fill="white"/>
<path d="M68.1328 24.7168H67.7109C67.5088 24.6465 67.1836 24.5938 66.7354 24.5586C66.2871 24.5234 65.9136 24.5059 65.6147 24.5059C64.938 24.5059 64.3403 24.5498 63.8218 24.6377C63.3032 24.7256 62.7451 24.875 62.1475 25.0859V35H57.4014V20.1948H62.1475V22.3701C63.1934 21.4736 64.103 20.8804 64.8765 20.5903C65.6499 20.2915 66.3618 20.1421 67.0122 20.1421C67.1792 20.1421 67.3682 20.1465 67.5791 20.1553C67.79 20.1641 67.9746 20.1772 68.1328 20.1948V24.7168Z" fill="white"/>
<path d="M78.5347 35.3955C77.2427 35.3955 76.0605 35.2417 74.9883 34.9341C73.9248 34.6265 72.9976 34.1519 72.2065 33.5103C71.4243 32.8687 70.8179 32.0601 70.3872 31.0845C69.9565 30.1089 69.7412 28.9663 69.7412 27.6567C69.7412 26.2769 69.9697 25.0859 70.4268 24.084C70.8926 23.082 71.5386 22.2515 72.3647 21.5923C73.1646 20.9683 74.0874 20.5112 75.1333 20.2212C76.1792 19.9312 77.2646 19.7861 78.3896 19.7861C79.4004 19.7861 80.332 19.896 81.1846 20.1157C82.0371 20.3354 82.8325 20.6211 83.5708 20.9727V25.02H82.8984C82.7139 24.8618 82.4897 24.6772 82.2261 24.4663C81.9712 24.2554 81.6548 24.0488 81.2769 23.8467C80.9165 23.6533 80.521 23.4951 80.0903 23.3721C79.6597 23.2402 79.1587 23.1743 78.5874 23.1743C77.3218 23.1743 76.3462 23.5786 75.6606 24.3872C74.9839 25.187 74.6455 26.2769 74.6455 27.6567C74.6455 29.0806 74.9927 30.1616 75.687 30.8999C76.3901 31.6382 77.3833 32.0073 78.6665 32.0073C79.2642 32.0073 79.8003 31.9414 80.2749 31.8096C80.7583 31.6689 81.1582 31.5063 81.4746 31.3218C81.7734 31.146 82.0371 30.9614 82.2656 30.7681C82.4941 30.5747 82.7051 30.3857 82.8984 30.2012H83.5708V34.2485C82.8237 34.6001 82.0415 34.877 81.2241 35.0791C80.4155 35.29 79.519 35.3955 78.5347 35.3955Z" fill="white"/>
<path d="M101.593 35H96.8203V27.6567C96.8203 27.0591 96.7896 26.4658 96.728 25.877C96.6665 25.2793 96.561 24.8398 96.4116 24.5586C96.2358 24.2334 95.9766 23.9961 95.6338 23.8467C95.2998 23.6973 94.8296 23.6226 94.2231 23.6226C93.7925 23.6226 93.353 23.6929 92.9048 23.8335C92.4653 23.9741 91.9863 24.1982 91.4678 24.5059V35H86.7217V14.4863H91.4678V21.8296C92.3115 21.1704 93.1201 20.665 93.8936 20.3135C94.6758 19.9619 95.5415 19.7861 96.4907 19.7861C98.0903 19.7861 99.3384 20.252 100.235 21.1836C101.14 22.1152 101.593 23.5083 101.593 25.3628V35Z" fill="white"/>
<path d="M17.8638 52.1665H11.7334V68H6.6709V52.1665H0.540527V48.3696H17.8638V52.1665Z" fill="white"/>
<path d="M35.2266 61.4741H24.3633C24.4336 62.6343 24.873 63.522 25.6816 64.1372C26.499 64.7524 27.6987 65.0601 29.2808 65.0601C30.2827 65.0601 31.2539 64.8799 32.1943 64.5195C33.1348 64.1592 33.8774 63.7725 34.4224 63.3594H34.9497V67.1694C33.8774 67.6001 32.8667 67.9121 31.9175 68.1055C30.9683 68.2988 29.918 68.3955 28.7666 68.3955C25.7959 68.3955 23.5195 67.7275 21.9375 66.3916C20.3555 65.0557 19.5645 63.1528 19.5645 60.6831C19.5645 58.2397 20.3115 56.3062 21.8057 54.8823C23.3086 53.4497 25.3652 52.7334 27.9756 52.7334C30.3838 52.7334 32.1943 53.3442 33.4072 54.5659C34.6201 55.7788 35.2266 57.5278 35.2266 59.813V61.4741ZM30.5068 58.6924C30.4805 57.6992 30.2344 56.9521 29.7686 56.4512C29.3027 55.9502 28.5776 55.6997 27.5933 55.6997C26.6792 55.6997 25.9277 55.937 25.3389 56.4116C24.75 56.8862 24.4204 57.6465 24.3501 58.6924H30.5068Z" fill="white"/>
<path d="M47.54 64.1372V61.0522C46.8984 61.105 46.2041 61.1797 45.457 61.2764C44.71 61.3643 44.1431 61.4697 43.7563 61.5928C43.2817 61.7422 42.917 61.9619 42.6621 62.252C42.416 62.5332 42.293 62.9067 42.293 63.3726C42.293 63.6802 42.3193 63.9307 42.3721 64.124C42.4248 64.3174 42.5566 64.502 42.7676 64.6777C42.9697 64.8535 43.2114 64.9854 43.4927 65.0732C43.7739 65.1523 44.2134 65.1919 44.811 65.1919C45.2856 65.1919 45.7646 65.0952 46.248 64.9019C46.7402 64.7085 47.1709 64.4536 47.54 64.1372ZM47.54 66.4312C47.2852 66.6245 46.9688 66.8574 46.5908 67.1299C46.2129 67.4023 45.8569 67.6177 45.5229 67.7759C45.0571 67.9868 44.5737 68.1406 44.0728 68.2373C43.5718 68.3428 43.0225 68.3955 42.4248 68.3955C41.0186 68.3955 39.8408 67.9604 38.8916 67.0903C37.9424 66.2202 37.4678 65.1084 37.4678 63.7549C37.4678 62.6738 37.7095 61.7905 38.1929 61.105C38.6763 60.4194 39.3618 59.8789 40.2495 59.4834C41.1284 59.0879 42.2183 58.8066 43.519 58.6396C44.8198 58.4727 46.1689 58.3496 47.5664 58.2705V58.1914C47.5664 57.374 47.2324 56.8115 46.5645 56.5039C45.8965 56.1875 44.9121 56.0293 43.6113 56.0293C42.8291 56.0293 41.9941 56.1699 41.1064 56.4512C40.2188 56.7236 39.5815 56.9346 39.1948 57.084H38.7598V53.5112C39.2607 53.3794 40.0737 53.2256 41.1987 53.0498C42.3325 52.8652 43.4663 52.7729 44.6001 52.7729C47.2983 52.7729 49.2451 53.1904 50.4404 54.0254C51.6445 54.8516 52.2466 56.1523 52.2466 57.9277V68H47.54V66.4312Z" fill="white"/>
<path d="M71.0859 57.5059V68H66.3135V60.604C66.3135 59.8833 66.2959 59.2725 66.2607 58.7715C66.2256 58.2617 66.1289 57.8486 65.9707 57.5322C65.8125 57.2158 65.5708 56.9873 65.2456 56.8467C64.9292 56.6973 64.481 56.6226 63.9009 56.6226C63.4351 56.6226 62.9824 56.7192 62.543 56.9126C62.1035 57.0972 61.708 57.2949 61.3564 57.5059V68H56.6104V53.1948H61.3564V54.8296C62.1738 54.188 62.9561 53.687 63.7031 53.3267C64.4502 52.9663 65.2764 52.7861 66.1816 52.7861C67.1572 52.7861 68.0186 53.0059 68.7656 53.4453C69.5127 53.876 70.0972 54.5132 70.519 55.3569C71.4683 54.5571 72.3911 53.9287 73.2876 53.4717C74.1841 53.0146 75.063 52.7861 75.9243 52.7861C77.5239 52.7861 78.7368 53.2651 79.563 54.2231C80.3979 55.1812 80.8154 56.561 80.8154 58.3628V68H76.043V60.604C76.043 59.8745 76.0254 59.2593 75.9902 58.7583C75.9639 58.2573 75.8716 57.8486 75.7134 57.5322C75.564 57.2158 75.3267 56.9873 75.0015 56.8467C74.6763 56.6973 74.2192 56.6226 73.6304 56.6226C73.2349 56.6226 72.8481 56.6929 72.4702 56.8335C72.0923 56.9653 71.6309 57.1895 71.0859 57.5059Z" fill="white"/>
<path d="M126.216 0.100006V2.42801L96.34 68H92.751L122.433 3.10701H81.596V16.493H78.395V0.100006H126.216Z" fill="#B4EC51"/>
</svg>

<svg width="127" height="69" viewBox="0 0 127 69" fill="none" xmlns="http://www.w3.org/2000/svg"><path d="M18.22 28.83c0 1.934-.822 3.507-2.466 4.72-1.634 1.204-3.858 1.806-6.67 1.806-1.626 0-3.046-.14-4.259-.422a22.493 22.493 0 0 1-3.388-1.094v-4.707h.554a11.745 11.745 0 0 0 3.507 1.925c1.3.448 2.548.672 3.744.672.307 0 .712-.026 1.213-.079.5-.052.91-.14 1.226-.263.386-.159.703-.356.949-.594.255-.237.382-.588.382-1.054 0-.43-.184-.8-.553-1.108-.36-.316-.893-.558-1.596-.725a43.77 43.77 0 0 0-2.346-.488 18.797 18.797 0 0 1-2.308-.593c-1.652-.536-2.843-1.261-3.572-2.175-.721-.923-1.081-2.066-1.081-3.428 0-1.828.817-3.318 2.452-4.47 1.643-1.16 3.753-1.74 6.328-1.74 1.292 0 2.566.128 3.823.383 1.266.246 2.36.558 3.283.936v4.522h-.54c-.792-.633-1.763-1.16-2.914-1.582a9.866 9.866 0 0 0-3.507-.646c-.422 0-.844.03-1.266.092a4.74 4.74 0 0 0-1.2.317 2.275 2.275 0 0 0-.883.606 1.296 1.296 0 0 0-.369.91c0 .518.198.918.593 1.2.396.272 1.143.522 2.242.751.72.15 1.41.294 2.07.435.667.14 1.384.334 2.148.58 1.503.492 2.61 1.165 3.323 2.017.72.844 1.08 1.943 1.08 3.296zm17.798-.356H25.154c.07 1.16.51 2.048 1.319 2.663.817.615 2.017.923 3.599.923 1.002 0 1.973-.18 2.913-.54.94-.36 1.684-.747 2.228-1.16h.528v3.81c-1.072.43-2.083.742-3.032.935-.95.194-2 .29-3.151.29-2.971 0-5.247-.668-6.83-2.003-1.582-1.336-2.373-3.24-2.373-5.709 0-2.443.747-4.377 2.242-5.8 1.503-1.433 3.56-2.15 6.17-2.15 2.408 0 4.218.611 5.431 1.833 1.213 1.213 1.82 2.962 1.82 5.247v1.661zm-4.72-2.782c-.026-.993-.273-1.74-.738-2.24-.466-.502-1.191-.752-2.176-.752-.914 0-1.665.237-2.254.712-.589.474-.919 1.235-.989 2.28h6.157zm17.033 5.445v-3.085a46.34 46.34 0 0 0-2.083.224c-.747.088-1.314.194-1.7.317-.475.15-.84.369-1.095.659-.246.281-.369.655-.369 1.12 0 .308.026.559.08.752.052.193.184.378.395.554.202.175.443.307.725.395.28.08.72.119 1.318.119.475 0 .954-.097 1.437-.29a4.49 4.49 0 0 0 1.292-.765zm0 2.294c-.255.194-.571.426-.95.699a6.919 6.919 0 0 1-1.067.646 6.51 6.51 0 0 1-1.45.461 8.006 8.006 0 0 1-1.648.158c-1.406 0-2.584-.435-3.533-1.305-.95-.87-1.424-1.982-1.424-3.335 0-1.081.242-1.964.725-2.65.483-.686 1.169-1.226 2.056-1.622.88-.395 1.97-.676 3.27-.843 1.3-.167 2.65-.29 4.047-.37v-.079c0-.817-.334-1.38-1.002-1.687-.667-.317-1.652-.475-2.953-.475-.782 0-1.617.14-2.505.422a32.05 32.05 0 0 0-1.911.633h-.435v-3.573c.5-.132 1.314-.285 2.439-.461a21.133 21.133 0 0 1 3.401-.277c2.698 0 4.645.417 5.84 1.252 1.204.827 1.807 2.127 1.807 3.903V35H48.33v-1.569zm19.802-8.714h-.422c-.202-.07-.527-.123-.976-.158a14.762 14.762 0 0 0-1.12-.053c-.677 0-1.275.044-1.793.132a10.18 10.18 0 0 0-1.675.448V35h-4.746V20.195h4.746v2.175c1.046-.896 1.956-1.49 2.73-1.78.773-.299 1.485-.448 2.135-.448.167 0 .356.005.567.013.211.01.396.022.554.04v4.522zm10.402 10.678c-1.292 0-2.474-.153-3.547-.46-1.063-.309-1.99-.783-2.781-1.425a6.453 6.453 0 0 1-1.82-2.425c-.43-.976-.646-2.119-.646-3.428 0-1.38.229-2.571.686-3.573a6.804 6.804 0 0 1 1.938-2.492 7.863 7.863 0 0 1 2.768-1.37 12.13 12.13 0 0 1 3.257-.436c1.01 0 1.942.11 2.795.33.852.22 1.647.505 2.386.857v4.047h-.673a26.147 26.147 0 0 0-.672-.554 5.73 5.73 0 0 0-.95-.62 5.966 5.966 0 0 0-1.186-.474c-.43-.132-.931-.198-1.503-.198-1.265 0-2.24.405-2.926 1.213-.677.8-1.016 1.89-1.016 3.27 0 1.424.348 2.505 1.042 3.243.703.738 1.696 1.107 2.98 1.107.597 0 1.133-.066 1.608-.197a5.45 5.45 0 0 0 1.2-.488c.298-.176.562-.36.79-.554.23-.193.44-.382.633-.567h.673v4.047c-.747.352-1.53.629-2.347.831-.809.211-1.705.316-2.69.316zM101.593 35H96.82v-7.343c0-.598-.03-1.191-.092-1.78-.061-.598-.167-1.037-.316-1.318a1.574 1.574 0 0 0-.778-.712c-.334-.15-.804-.224-1.41-.224-.431 0-.871.07-1.32.21a7.113 7.113 0 0 0-1.436.673V35h-4.746V14.486h4.746v7.344c.843-.66 1.652-1.165 2.426-1.516.782-.352 1.647-.528 2.597-.528 1.6 0 2.847.466 3.744 1.398.905.931 1.358 2.324 1.358 4.179V35zM17.864 52.166h-6.13V68H6.67V52.166H.54V48.37h17.323v3.797zm17.363 9.308H24.363c.07 1.16.51 2.048 1.319 2.663.817.615 2.017.923 3.599.923 1.002 0 1.973-.18 2.913-.54.94-.36 1.683-.747 2.228-1.16h.528v3.81c-1.073.43-2.083.742-3.033.936-.949.193-1.999.29-3.15.29-2.971 0-5.247-.668-6.83-2.004-1.582-1.336-2.373-3.24-2.373-5.709 0-2.443.747-4.377 2.242-5.8 1.503-1.433 3.56-2.15 6.17-2.15 2.408 0 4.218.611 5.431 1.833 1.213 1.213 1.82 2.962 1.82 5.247v1.661zm-4.72-2.782c-.027-.993-.273-1.74-.738-2.24-.466-.502-1.191-.752-2.176-.752-.914 0-1.665.237-2.254.712-.589.474-.919 1.235-.989 2.28h6.157zm17.033 5.445v-3.085a46.34 46.34 0 0 0-2.083.224c-.747.088-1.314.194-1.7.317-.475.15-.84.369-1.095.659-.246.281-.369.655-.369 1.12 0 .308.026.559.08.752.052.193.184.378.395.554.202.175.443.307.725.395.28.08.72.119 1.318.119.475 0 .954-.097 1.437-.29a4.487 4.487 0 0 0 1.292-.765zm0 2.294c-.255.194-.571.426-.95.699a6.915 6.915 0 0 1-1.067.646 6.51 6.51 0 0 1-1.45.461 8.006 8.006 0 0 1-1.648.159c-1.406 0-2.584-.436-3.533-1.306-.95-.87-1.424-1.982-1.424-3.335 0-1.081.241-1.965.725-2.65.483-.686 1.169-1.226 2.056-1.622.88-.395 1.97-.676 3.27-.843 1.3-.167 2.65-.29 4.047-.37v-.079c0-.817-.334-1.38-1.002-1.687-.667-.316-1.652-.475-2.953-.475-.782 0-1.617.14-2.505.422-.887.273-1.525.484-1.911.633h-.435v-3.573c.5-.132 1.314-.285 2.439-.461a21.133 21.133 0 0 1 3.401-.277c2.698 0 4.645.417 5.84 1.252 1.205.827 1.807 2.127 1.807 3.903V68H47.54v-1.569zm23.546-8.925V68h-4.772v-7.396c0-.72-.018-1.331-.053-1.832-.035-.51-.132-.923-.29-1.24a1.414 1.414 0 0 0-.725-.685c-.317-.15-.765-.224-1.345-.224-.466 0-.919.096-1.358.29-.44.184-.835.382-1.187.593V68H56.61V53.195h4.746v1.635c.818-.642 1.6-1.143 2.347-1.503.747-.36 1.573-.54 2.479-.54.975 0 1.837.219 2.584.658.747.431 1.331 1.068 1.753 1.912.95-.8 1.872-1.428 2.769-1.885.896-.457 1.775-.686 2.636-.686 1.6 0 2.813.48 3.639 1.437.835.958 1.252 2.338 1.252 4.14V68h-4.772v-7.396c0-.73-.018-1.345-.053-1.846-.026-.5-.118-.91-.277-1.226a1.356 1.356 0 0 0-.712-.685c-.325-.15-.782-.224-1.37-.224-.396 0-.783.07-1.16.21-.379.132-.84.357-1.385.673z" fill="#fff"/><path d="M126.216.1v2.328L96.34 68h-3.589l29.682-64.893H81.596v13.386h-3.201V.1h47.821z" fill="#B4EC51"/></svg>
